X: 26955
T: Miss Catherine Jane Sprees
R: jig
M: 6/8
K: Amajor
B|:c~c~c cBA|FAF E2E|EFA cBA|c2 B- BAB|
c~c~c cBA|FAF E2E|EFA cBA|B2 A- A2B:|
|:c~f~f fec|efa cBA|cfe ffe|fga cBA|
c~f~f fec|efa cBA|cfc ecA|1 B2 A- A2B:|2 B2 A3||

